svg/business/tag_2_fill.svg

<?xml version="1.0" encoding="UTF-8"?>
<svg width="24px" height="24px" viewBox="0 0 24 24" version="1.1" xmlns="http://www.w3.org/2000/svg" xmlns:xlink="http://www.w3.org/1999/xlink">
    <title>tag_2_fill</title>
    <g id="页面-1" stroke="none" stroke-width="1" fill="none" fill-rule="evenodd">
        <g id="Business" transform="translate(-480.000000, -432.000000)" fill-rule="nonzero">
            <g id="tag_2_fill" transform="translate(480.000000, 432.000000)">
                <path d="M24,0 L24,24 L0,24 L0,0 L24,0 Z M12.5934901,23.257841 L12.5819402,23.2595131 L12.5108777,23.2950439 L12.4918791,23.2987469 L12.4918791,23.2987469 L12.4767152,23.2950439 L12.4056548,23.2595131 C12.3958229,23.2563662 12.3870493,23.2590235 12.3821421,23.2649074 L12.3780323,23.275831 L12.360941,23.7031097 L12.3658947,23.7234994 L12.3769048,23.7357139 L12.4804777,23.8096931 L12.4953491,23.8136134 L12.4953491,23.8136134 L12.5071152,23.8096931 L12.6106902,23.7357139 L12.6232938,23.7196733 L12.6232938,23.7196733 L12.6266527,23.7031097 L12.609561,23.275831 C12.6075724,23.2657013 12.6010112,23.2592993 12.5934901,23.257841 L12.5934901,23.257841 Z M12.8583906,23.1452862 L12.8445485,23.1473072 L12.6598443,23.2396597 L12.6498822,23.2499052 L12.6498822,23.2499052 L12.6471943,23.2611114 L12.6650943,23.6906389 L12.6699349,23.7034178 L12.6699349,23.7034178 L12.678386,23.7104931 L12.8793402,23.8032389 C12.8914285,23.8068999 12.9022333,23.8029875 12.9078286,23.7952264 L12.9118235,23.7811639 L12.8776777,23.1665331 C12.8752882,23.1545897 12.8674102,23.1470016 12.8583906,23.1452862 L12.8583906,23.1452862 Z M12.1430473,23.1473072 C12.1332178,23.1423925 12.1221763,23.1452606 12.1156365,23.1525954 L12.1099173,23.1665331 L12.0757714,23.7811639 C12.0751323,23.7926639 12.0828099,23.8018602 12.0926481,23.8045676 L12.108256,23.8032389 L12.3092106,23.7104931 L12.3186497,23.7024347 L12.3186497,23.7024347 L12.3225043,23.6906389 L12.340401,23.2611114 L12.337245,23.2485176 L12.337245,23.2485176 L12.3277531,23.2396597 L12.1430473,23.1473072 Z" id="MingCute" fill-rule="nonzero"></path>
                <path d="M10.2382,4.82703 C11.0339,4.82703 11.797,5.1431 12.3596,5.70571 L18.8448,12.191 C20.0164,13.3626 20.0164,15.2621 18.8448,16.4336 L14.6022,20.6763 C13.4306,21.8478 11.5311,21.8478 10.3596,20.6763 L3.87428,14.191 C3.31168,13.6284 2.99561,12.8653 2.99561,12.0697 L2.99561,7.32703 C2.99561,5.94632 4.11489,4.82703 5.49561,4.82703 L10.2382,4.82703 Z M9.65241,9.36258 C9.06662,8.77679 8.11687,8.77679 7.53109,9.36258 C6.9453,9.94836 6.9453,10.8981 7.53109,11.4839 C8.11687,12.0697 9.06662,12.0697 9.65241,11.4839 C10.2382,10.8981 10.2382,9.94836 9.65241,9.36258 Z M11.6524,1.99854 C12.3817917,1.99854 13.0837062,2.2641266 13.628972,2.74173628 L13.7737,2.87721 L20.9661,10.0696 C21.3566,10.4601 21.3566,11.0933 20.9661,11.4838 C20.6056385,11.8442615 20.0383793,11.8719893 19.6461027,11.5669834 L19.5519,11.4838 L12.3595,4.29143 C12.20325,4.13514667 12.0005417,4.03593972 11.7838403,4.00721194 L11.6524,3.99854 L7.00012,3.99854 C6.44784,3.99854 6.00012,3.55082 6.00012,2.99854 C6.00012,2.48569929 6.38616429,2.06303214 6.88349975,2.00526766 L7.00012,1.99854 L11.6524,1.99854 Z" id="形状" fill="#09244B"></path>
            </g>
        </g>
    </g>
</svg>

<svg xmlns="http://www.w3.org/2000/svg" width="24" height="24"><g fill="none" fill-rule="nonzero"><path d="M24 0v24H0V0zM12.593 23.258l-.011.002-.071.035-.02.004-.014-.004-.071-.035c-.01-.004-.019-.001-.024.005l-.004.01-.017.428.005.02.01.013.104.074.015.004.012-.004.104-.074.012-.016.004-.017-.017-.427c-.002-.01-.009-.017-.017-.018m.265-.113-.013.002-.185.093-.01.01-.003.011.018.43.005.012.008.007.201.093c.012.004.023 0 .029-.008l.004-.014-.034-.614c-.003-.012-.01-.02-.02-.022m-.715.002a.023.023 0 0 0-.027.006l-.006.014-.034.614c0 .012.007.02.017.024l.015-.002.201-.093.01-.008.004-.011.017-.43-.003-.012-.01-.01z"/><path fill="#09244B" d="M10.238 4.827a3 3 0 0 1 2.122.879l6.485 6.485a3 3 0 0 1 0 4.243l-4.243 4.242a3 3 0 0 1-4.242 0l-6.486-6.485a3 3 0 0 1-.878-2.121V7.327a2.5 2.5 0 0 1 2.5-2.5zm-.586 4.536a1.5 1.5 0 1 0-2.12 2.12 1.5 1.5 0 0 0 2.12-2.12m2-7.364a3 3 0 0 1 1.977.743l.145.135 7.192 7.193a1 1 0 0 1-1.32 1.497l-.094-.083L12.36 4.29a1 1 0 0 0-.576-.284L11.652 4H7a1 1 0 0 1-.117-1.994L7 2z"/></g></svg>
